!!!!SEGMENT: pl-wtm--r-1543--005_stefani-jozef--msza-in-f-offertorium.krn
!!!cenid: 18xx:1789
!!!COM: Stefani, Józef
!!!COM-rismID:
!!!CDT: 1800/04/16-1876/03/19
!!!CNT: Polish
!!!OPR: Msza in F
!!!OTL: Offertorium
!!!OMV: 005
!!!PDT:
!!!AGN: Sacred; Mass
!!!SMS-siglum: PL-Wtm
!!!SMS-shelfmark: R 1543
!!!SMS-shelfwork: 001-005 M
!!!SMS-variant:
!!!SMS-altvar:
!!!NIFC-rismSourceID: 1001120491
!!!NIFC-islandoraID: pl-wtm:26483
!!!URL-pdf-islandora: https://repozytorium.nifc.pl/islandora/object/pl-wtm%3A26483/datastream/PDF/view
!!!URL-scan: https://polish.musicsources.pl/pl/lokalizacje/galeria/rekopisy/6344 @EN{Scan on Polish Music Herritage in Open Access Website} @PL{Skany w portalu Dziedzictwo Muzyki Polskiej w otwartym dostępie}
!!!ONB-nifc: UWAGA: części Mszy: 1. Kyrie, 2. Gloria, 3. Graduale, 4. Credo, 5. Offertorium, 6. Sanctus, 7. Agnus Dei, 8. Dona nobis
!!!OMD: Andantino.
!!!AIN: 1 alto 1 bass 4 clars 2 cor 1 empty 1 fagot 1 flt 1 oboe 1 organ 1 serp 1 soprn 1 tenor 1 timpa 1 tromp
!!!key:
**kern	**kern	**kern	**text	**dynam	**kern	**kern	**kern	**text	**dynam	**kern	**kern	**dynam	**kern	**dynam	**kern	**dynam	**kern	**dynam	**kern	**dynam	**kern	**dynam	**kern	**dynam	**kern	**dynam	**kern	**dynam	**kern	**dynam	**kern	**dynam	**kern	**dynam
*part18	*part18	*part17	*part17	*part17	*part16	*part15	*part14	*part14	*part14	*part13	*part12	*part12	*part11	*part11	*part10	*part10	*part9	*part9	*part8	*part8	*part7	*part7	*part6	*part6	*part5	*part5	*part4	*part4	*part3	*part3	*part2	*part2	*part1	*part1
*	*	*group1	*	*	*group1	*group1	*group1	*	*	*	*	*	*	*	*	*	*	*	*	*	*	*	*	*	*	*	*	*	*	*	*	*	*	*
*staff19	*staff18	*staff17	*staff17	*	*staff16	*staff15	*staff14	*staff14	*	*staff13	*staff12	*	*staff11	*	*staff10	*	*staff9	*	*staff8	*	*staff7	*	*staff6	*	*staff5	*	*staff4	*	*staff3	*	*staff2	*	*staff1	*
*Iorgan	*Iempty	*Ibass	*	*	*Itenor	*Ialto	*Isoprn	*	*	*Itimpa	*Ifagot	*	*Iempty	*	*Iserp	*	*Itromp	*	*Icor	*	*Icor	*	*Iclars	*	*Iclars	*	*Iclars	*	*Iclars	*	*Ioboe	*	*Iflt	*
*I"Organo	*	*I"Basso	*	*	*I"Tenore	*I"Alto	*I"Soprano	*	*	*I"Timpani	*I"Fagotti	*	*	*	*I"Tromboni et serpent.	*	*I"Trombe in C	*	*I"Corni in F	*	*I"Corni in D	*	*I"Clarinetto 2do in C	*	*I"Clarinetto 1mo in C	*	*I"Clarinetto obligato in C	*	*I"Petit Clarinet in F.	*	*I"Oboe	*	*I"Flauto	*
*I'org	*	*I'B	*	*	*I'T	*I'A	*I'S	*	*	*I'timp	*I'fag	*	*	*	*I'trb	*	*I'tr	*	*I'cor in F	*	*I'cor in D	*	*I'cl II	*	*I'cl I	*	*I'cl obl	*	*I'cl in F	*	*I'ob	*	*I'fl	*
*clefF4	*clefG2	*clefF4	*	*	*clefC4	*clefG2	*clefG2	*	*	*clefF4	*clefF4	*	*clefF4	*	*clefC4	*	*clefG2	*	*clefG2	*	*clefG2	*	*clefG2	*	*clefG2	*	*clefG2	*	*clefG2	*	*clefG2	*	*clefG2	*
*	*	*	*	*	*	*	*	*	*	*	*	*	*	*	*	*	*	*	*ITrd4c7	*	*ITrd6c10	*	*	*	*	*	*	*	*ITrd4c7	*	*	*	*	*
*k[f#c#]	*k[f#c#]	*k[f#c#]	*	*	*k[f#c#]	*k[f#c#]	*k[f#c#]	*	*	*k[]	*k[f#c#]	*	*k[f#c#]	*	*k[f#c#]	*	*k[f#c#]	*	*k[b-]	*	*k[f#c#]	*	*k[f#c#]	*	*k[f#c#]	*	*k[f#c#]	*	*k[f#c#]	*	*k[f#c#]	*	*k[f#c#]	*
*D:	*D:	*D:	*	*	*D:	*D:	*D:	*	*	*D:	*D:	*	*D:	*	*D:	*	*D:	*	*D:	*	*D:	*	*D:	*	*D:	*	*D:	*	*D:	*	*D:	*	*D:	*
*M3/4	*M3/4	*M3/4	*	*	*M3/4	*M3/4	*M3/4	*	*	*M3/4	*M3/4	*	*M3/4	*	*M3/4	*	*M3/4	*	*M3/4	*	*M3/4	*	*M3/4	*	*M3/4	*	*M3/4	*	*M3/4	*	*M3/4	*	*M3/4	*
*>[A,B,B1,B,B2]	*>[A,B,B1,B,B2]	*>[A,B,B1,B,B2]	*>[A,B,B1,B,B2]	*>[A,B,B1,B,B2]	*>[A,B,B1,B,B2]	*>[A,B,B1,B,B2]	*>[A,B,B1,B,B2]	*>[A,B,B1,B,B2]	*>[A,B,B1,B,B2]	*>[A,B,B1,B,B2]	*>[A,B,B1,B,B2]	*>[A,B,B1,B,B2]	*>[A,B,B1,B,B2]	*>[A,B,B1,B,B2]	*>[A,B,B1,B,B2]	*>[A,B,B1,B,B2]	*>[A,B,B1,B,B2]	*>[A,B,B1,B,B2]	*>[A,B,B1,B,B2]	*>[A,B,B1,B,B2]	*>[A,B,B1,B,B2]	*>[A,B,B1,B,B2]	*>[A,B,B1,B,B2]	*>[A,B,B1,B,B2]	*>[A,B,B1,B,B2]	*>[A,B,B1,B,B2]	*>[A,B,B1,B,B2]	*>[A,B,B1,B,B2]	*>[A,B,B1,B,B2]	*>[A,B,B1,B,B2]	*>[A,B,B1,B,B2]	*>[A,B,B1,B,B2]	*>[A,B,B1,B,B2]	*>[A,B,B1,B,B2]
*>A	*>A	*>A	*>A	*>A	*>A	*>A	*>A	*>A	*>A	*>A	*>A	*>A	*>A	*>A	*>A	*>A	*>A	*>A	*>A	*>A	*>A	*>A	*>A	*>A	*>A	*>A	*>A	*>A	*>A	*>A	*>A	*>A	*>A	*>A
!	!	!	!	!	!	!	!	!	!LO:DY:rj	!	!	!LO:DY:rj	!	!	!	!	!	!LO:DY:a:rj	!	!	!	!	!	!	!	!LO:DY:rj	!	!	!	!	!	!	!	!
4A 4D\	8f#L 8d/	8D\	U	.	8A/	8d/	8f#/	U	p	4r	4d 4D\	p	4r	.	4r	.	(8f#L 8d'/	p	4r	.	4r	.	(8d'/L	.	(8f#'/L	p	8f#'/L	.	4r	.	4r	.	4r	.
.	8gJ 8e/	8D\	nóg	.	8A/	8e/	8g/	nóg	.	.	.	.	.	.	.	.	8gJ 8e'/)	.	.	.	.	.	8e'/J)	.	8g'/J)	.	8g'/J	.	.	.	.	.	.	.
=1	=1	=1	=1	=1	=1	=1	=1	=1	=1	=1	=1	=1	=1	=1	=1	=1	=1	=1	=1	=1	=1	=1	=1	=1	=1	=1	=1	=1	=1	=1	=1	=1	=1	=1
*2\right	*	*	*	*	*	*	*	*	*	*	*2\right	*	*	*	*	*	*	*	*	*	*	*	*	*	*	*	*	*	*	*	*	*	*	*
!	!	!	!	!	!	!	!	!	!	!	!	!LO:DY:rj	!	!	!	!	!	!	!	!	!	!	!	!	!LO:TX:a:t=Col Clar.Obli.	!	!	!	!	!	!	!	!	!
2A 2D\	8aL 8f#/	4D\	świę-	.	4A\	8f#/L	(8a/L	świę-	.	2.ryy	2d 2D\	p	4r	.	4r	.	(8aL 8f#/	.	4r	.	4r	.	(8f#/L	.	(8a/Lyy	.	(8a/L	.	4r	.	4r	.	4r	.
.	8bJ 8g/	.	.	.	.	8g/J	8b/J)	.	.	.	.	.	.	.	.	.	8bJ 8g/)	.	.	.	.	.	8g/J)	.	8b/J)yy	.	8b/J)	.	.	.	.	.	.	.
.	4a 4f#/	4D\	-tych	.	4A\	4f#/	4a/	-tych	.	.	.	.	4r	.	4r	.	4a 4f#/	.	4r	.	4r	.	4f#/	.	4a/yy	.	4a/	.	4r	.	4r	.	4r	.
!	!	!	!	!	!	!	!	!	!	!	!	!	!	!	!	!LO:DY:rj	!	!	!	!	!	!LO:DY:rj	!	!	!	!	!	!	!	!LO:DY:rj	!	!	!	!
4A 4AA\	8bL 8g/	4AA/	oł-	.	4A\	8e/L	(8cc#\L	oł-	.	.	4A 4AA\	.	4AA/	.	(8eL 8c#\	p	(8cc#L 8e/	.	8aL 8A/	.	(8eL 8A/	p	(8e/L	.	(8cc#\Lyy	.	(8cc#\L	.	4a\	p	(8eeL 8cc#\	.	4aa\	.
.	8cc#J 8e/	.	.	.	.	8f#/J	8dd\J)	.	.	.	.	.	.	.	8f#J 8d\)	.	8ddJ 8f#/)	.	8aJ 8A/	.	8f#J 8d/)	.	8f#/J)	.	8dd\J)yy	.	8dd\J)	.	.	.	8ff#J 8dd\)	.	.	.
=2	=2	=2	=2	=2	=2	=2	=2	=2	=2	=2	=2	=2	=2	=2	=2	=2	=2	=2	=2	=2	=2	=2	=2	=2	=2	=2	=2	=2	=2	=2	=2	=2	=2	=2
*	*	*	*	*	*2\right	*	*2\right	*	*	*	*	*	*	*	*2\right	*	*	*	*	*	*2\right	*	*	*	*2\right	*	*2\right	*	*2\right	*	*2\right	*	*2\right	*
!	!	!	!	!	!	!	!	!	!	!	!	!	!	!	!LO:S:s=2:note:problem=note-level slur	!	!	!	!	!	!LO:S:s=2:note:problem=note-level slur	!	!	!	!	!	!	!	!	!	!LO:S:s=2:note:problem=note-level slur	!	!	!
2A 2AA\	2ee 2g/	2AA/	-ta-	.	2A\	2g/	2ee\	-ta-	.	2.ryy	2A 2AA\	.	2AA/	.	(2g (>2e\	.	2ee 2g/	.	2.a 2.A/	.	(2g (>2e\	.	(2g/	.	(2ee\yy	.	(2ee\	.	2.aTT\	.	(2gg (>2ee\	.	2.aaTT\	.
4A 4AA\	4cc# 4e/	4AA/	-rżów	.	4A\	4e/	4cc#\	-rżów	.	.	4A 4AA\	.	4AA/	.	4e) 4c#\)	.	4cc# 4e/	.	.	.	4e) 4A/)	.	4e/)	.	4cc#\)yy	.	4cc#\)	.	.	.	4ee) 4cc#\)	.	.	.
.	.	.	.	.	.	.	.	.	.	.	.	.	.	.	.	.	.	.	.	.	.	.	.	.	.	.	.	.	(16qqg#X/LL	.	.	.	(16qqgg#X/LL	.
.	.	.	.	.	.	.	.	.	.	.	.	.	.	.	.	.	.	.	.	.	.	.	.	.	.	.	.	.	16qqa/JJ)	.	.	.	16qqaa/JJ)	.
=3	=3	=3	=3	=3	=3	=3	=3	=3	=3	=3	=3	=3	=3	=3	=3	=3	=3	=3	=3	=3	=3	=3	=3	=3	=3	=3	=3	=3	=3	=3	=3	=3	=3	=3
8F#L 8BB\	8ddL 8b 8d/	8BB/	Twych	.	8F#/	8d/	8dd\	Twych	.	2.ryy	8BL 8BB'\	.	2.r	.	2.r	.	2.ryy	.	2.r	.	8d'\L	.	(8d'/L	.	8dd'\Lyy	.	8dd'\L	.	8dd\	.	8dd'\L	.	8ddd\	.
8F#\J	8cc#J 8a#X 8e/	8F#\	u-	.	8A#X/	8e/	8cc#\	u-	.	.	8F#J 8FF#'\	.	.	.	.	.	.	.	.	.	8eJ 8c#'\	.	8e'/J)	.	8cc#'\Jyy	.	8cc#'\J	.	8r	.	8cc#J 8a#X'\	.	8r	.
4G\	4b 4d/	4G\	-po-	.	4B\	4d/	4b\	-po-	.	.	4G 4GG/	.	.	.	.	.	.	.	.	.	4d\	.	4d'/	.	4b\yy	.	4b\	.	4r	.	4b\	.	4r	.
4G 4GG/	4ee 4b 4e/	4GG/	-ko-	.	4B\	4e/	4ee\	-ko-	.	.	4G 4GG/	.	.	.	.	.	.	.	.	.	4e\	.	4e'/	.	4ee\yy	.	4ee\	.	4r	.	4ee 4b\	.	4r	.
=4	=4	=4	=4	=4	=4	=4	=4	=4	=4	=4	=4	=4	=4	=4	=4	=4	=4	=4	=4	=4	=4	=4	=4	=4	=4	=4	=4	=4	=4	=4	=4	=4	=4	=4
!	!	!	!	!	!	!	!	!	!	!	!	!	!	!	!	!LO:DY:rj	!	!LO:DY:rj	!	!	!	!	!	!LO:DY:rj	!	!LO:DY:rj	!	!LO:DY:rj	!	!	!	!LO:DY:rj	!	!
4A 4AA\	8cc#L 8e/	4AA/	-rze-	.	4An\	(8e/L	(8cc#\L	-rze-	.	2.ryy	4A 4AA\	.	4A\	.	(8eL 8c#\	f	(8cc#L 8e/	f	4r	.	8eL 8A/	.	8e/L	f	(8a\Lyy	f	(8a\L	f	16r	.	(8eeL 8cc#\	f	16r	f
.	.	.	.	.	.	.	.	.	.	.	.	.	.	.	.	.	.	.	.	.	.	.	.	.	.	.	.	.	(16A/LL	.	.	.	(16a\LL	.
.	8ddJ 8f#/	.	.	.	.	8f#/J)	8dd\J)	.	.	.	.	.	.	.	8f#J 8d\)	.	8ddJ 8f#/)	.	.	.	8f#J 8d/	.	8f#/J	.	8b\J)yy	.	8b\J)	.	16d/	.	8ff#J 8dd\)	.	16dd\	.
.	.	.	.	.	.	.	.	.	.	.	.	.	.	.	.	.	.	.	.	.	.	.	.	.	.	.	.	.	16f#/JJ)	.	.	.	16ff#\JJ)	.
4A 4AA;\	4cc# 4e;/	4AA;/	-ni	.	4A;\	4e;/	4cc#;\	-ni	.	.	4A 4AA;\	.	4AA;/	.	4e 4c#;<\	.	4cc# 4e;</	.	4a 4A;</	.	4e 4A;</	.	4e;/	.	4cc#;\yy	.	4cc#;\	.	4a;\	.	4ee 4cc#;\	.	4aa;\	.
!	!	!	!	!	!	!	!	!	!	!	!	!LO:DY:rj	!	!	!	!	!	!	!	!	!	!	!	!LO:DY:rj	!	!LO:DY:rj	!	!LO:DY:rj	!	!	!	!	!	!
4A 4D\	8f#L 8d/	8D\	O-	.	8A\	8d/	8f#/	O-	.	.	4d 4D\	p	4r	.	4r	.	(8f#L 8d/	.	4r	.	4r	.	8d/L	p	(8f#/Lyy	p	(8f#/L	p	4r	.	4r	.	4r	.
.	8gJ 8e/	8D\	-fia-	.	8A\	8e/	8g/	-fia-	.	.	.	.	.	.	.	.	8gJ 8e/)	.	.	.	.	.	8e/J	.	8g/J)yy	.	8g/J)	.	.	.	.	.	.	.
!!LO:PB:g=original
=5	=5	=5	=5	=5	=5	=5	=5	=5	=5	=5	=5	=5	=5	=5	=5	=5	=5	=5	=5	=5	=5	=5	=5	=5	=5	=5	=5	=5	=5	=5	=5	=5	=5	=5
*	*^	*	*	*	*	*	*	*	*	*	*	*	*	*	*	*	*^	*	*	*	*^	*	*	*	*	*	*	*	*	*	*	*	*	*
2A 2D\	8aL 8f#/	2ryy	4D\	-ru-	.	4A\	8f#/L	8a/L	-ru-	.	2.ryy	2d 2D\	.	2.r	.	2.r	.	(8aL 8f#/	2ryy	.	2.r	.	4r	4ryy	.	(8f#/L	.	(8a/Lyy	.	(8a/L	.	2.r	.	4r	.	2.r	.
.	8bJ 8g/	.	.	.	.	.	8g/J	8b/J	.	.	.	.	.	.	.	.	.	8bJ 8g/)	.	.	.	.	.	.	.	8g/J)	.	8b/J)yy	.	8b/J)	.	.	.	.	.	.	.
.	4a 4f#/	.	4D\	-iem	.	4A\	4f#/	4a/	-iem	.	.	.	.	.	.	.	.	4a 4f#/	.	.	.	.	4r	4ryy	.	4f#/	.	4a/yy	.	4a/	.	.	.	4r	.	.	.
4A 4AA\	8a/L	4e 4c#\	4AA/	Ci	.	4c#\	4e/	8a/L	Ci	.	.	4A 4AA\	.	.	.	.	.	(8a/L	4c#\	.	.	.	4e/	4A\	.	4c#/	.	(8a/Lyy	.	(8a/L	.	.	.	4ee\	.	.	.
.	8g/J	.	.	.	.	.	.	8g/J	.	.	.	.	.	.	.	.	.	8g/J)	.	.	.	.	.	.	.	.	.	8g/J)yy	.	8g/J)	.	.	.	.	.	.	.
*	*v	*v	*	*	*	*	*	*	*	*	*	*	*	*	*	*	*	*	*	*	*	*	*	*	*	*	*	*	*	*	*	*	*	*	*	*	*
=6	=6	=6	=6	=6	=6	=6	=6	=6	=6	=6	=6	=6	=6	=6	=6	=6	=6	=6	=6	=6	=6	=6	=6	=6	=6	=6	=6	=6	=6	=6	=6	=6	=6	=6	=6	=6
*^	*	*	*	*	*	*	*	*	*	*	*	*	*	*	*	*	*	*	*	*	*	*	*	*	*	*	*	*	*	*	*	*	*^	*	*	*
2A/	4D\	2f# 2d/	4D\	Bo-	.	4d\	4d/	4f#/	Bo-	.	2.ryy	4d 4D\	.	4r	.	4r	.	2f#/	2d\	.	2.r	.	2f#/	2d\	.	2.d/	.	2f#/yy	.	2f#/	.	2.r	.	4ff#\	4dd\	.	2.r	.
.	8D\L	.	8D/L	-że	.	4d\	4d/	4f#/	-że	.	.	8dL 8D\	.	8D/L	.	4r	.	.	.	.	.	.	.	.	.	.	.	.	.	.	.	.	.	8ff#\ 8dd\	4ryy	.	.	.
.	8C#\J	.	8C#/J	.	.	.	.	.	.	.	.	8c#J 8C#\	.	8C#/J	.	.	.	.	.	.	.	.	.	.	.	.	.	.	.	.	.	.	.	8r	.	.	.	.
4BB/	4ryy	4g#X 4e 4d/	4BB/	dar	.	4d\	4e/	4g#X/	dar	.	.	4B 4BB\	.	4BB/	.	4B 4G#X\	.	4g#X 4B/	4ryy	.	.	.	4e/	4e\	.	.	.	4g#X/yy	.	4g#X/	.	.	.	4ee/	4dd\	.	.	.
*v	*v	*	*	*	*	*	*	*	*	*	*	*	*	*	*	*	*	*v	*v	*	*	*	*	*	*	*	*	*	*	*	*	*	*	*	*	*	*	*
=7	=7	=7	=7	=7	=7	=7	=7	=7	=7	=7	=7	=7	=7	=7	=7	=7	=7	=7	=7	=7	=7	=7	=7	=7	=7	=7	=7	=7	=7	=7	=7	=7	=7	=7	=7	=7
*	*	*	*	*	*	*	*	*	*	*	*	*	*	*	*^	*	*	*	*	*	*	*	*	*	*	*	*	*	*	*	*	*	*	*	*	*
!	!	!	!	!	!	!	!	!	!LO:DY:a	!	!	!LO:HP:a	!	!LO:HP:a	!	!	!	!	!	!	!	!	!	!	!	!	!	!	!	!	!	!	!	!	!	!	!
2AA/	8aL 8e 8c#/	4AA/	chle-	.	8c#\L	4e/	(8a/L	chle-	<	2.ryy	2A 2AA\	<	2AA/	<	8c#L 8A\	2ryy	.	(8aL 8c#/	.	2.r	.	2e/	2e\	.	(8c#/L	.	(8a/Lyy	.	(8a/L	.	2.r	.	8ee\ 8cc#\	2ryy	.	2.r	.
.	8bJ 8e 8d/	.	.	.	8d\J	.	8b/J)	.	.	.	.	.	.	.	8dJ 8B\	.	.	8bJ 8d/)	.	.	.	.	.	.	8d/J)	.	8b/J)yy	.	8b/J)	.	.	.	8r	.	.	.	.
.	4cc# 4a 4e/	4AA/	-ba	.	4e\	4e/	4cc#/	-ba	.	.	.	.	.	.	4e 4c#\	.	.	4cc# 4e/	.	.	.	.	.	.	4e/	.	4cc#/yy	.	4cc#/	.	.	.	4r	.	.	.	.
8D\L	8bL 8f# 8d/	8D\L	i	.	8d\L	8f#/L	(8b/L	i	.	.	8dL 8D\	[	8D\L	.	8f#/L	4d\	.	(>8bL 8d/	.	.	.	8f#/L	8f#\L	.	8f#/L	.	(8b/Lyy	.	(8b/L	.	.	.	4dd/	4b\	.	.	.
8E\J	8g#XJ 8e 8B/	8E\J	.	.	8B\J	8e/J	8g#X/J)	.	[[	.	8eJ 8E\	.	8E\J	[[	8e/J	.	.	8g#XJ 8B/)	.	.	.	8e/J	8e\J	.	8d/J	.	8g#X/J)yy	.	8g#X/J)	.	.	.	.	.	.	.	.
=8	=8	=8	=8	=8	=8	=8	=8	=8	=8	=8	=8	=8	=8	=8	=8	=8	=8	=8	=8	=8	=8	=8	=8	=8	=8	=8	=8	=8	=8	=8	=8	=8	=8	=8	=8	=8	=8
!	!	!	!	!	!	!	!	!	!LO:DY:a	!	!	!	!	!	!	!	!	!	!	!	!	!	!	!	!	!	!	!	!	!	!	!	!	!	!	!	!
!	!	!	!	!LO:DY:b	!	!	!	!	!LO:DY:a	!	!	!LO:DY:rj	!	!	!	!	!	!	!	!	!	!	!	!	!	!LO:DY:rj	!	!LO:DY:rj	!	!LO:DY:rj	!	!	!	!	!	!	!
2A 2AA;</	4b 4g#X 4d/	4AA/	wi-	f	4d\	4g#X/	4b/	wi-	f >	2.ryy	2A 2AA;\	f	2AA;/	.	[4e/	(>4d\	f	4g#X 4B/	.	4r	.	2e;/	2e\	.	(4d/	f	(4b/yy	f	(4b/	f	16r	.	4dd/	4b\	f	16r	.
.	.	.	.	.	.	.	.	.	.	.	.	.	.	.	.	.	.	.	.	.	.	.	.	.	.	.	.	.	.	.	16ee\LL	.	.	.	.	16eee\LL	.
.	.	.	.	.	.	.	.	.	.	.	.	.	.	.	.	.	.	.	.	.	.	.	.	.	.	.	.	.	.	.	(16e\	.	.	.	.	(16ee\	.
.	.	.	.	.	.	.	.	.	.	.	.	.	.	.	.	.	.	.	.	.	.	.	.	.	.	.	.	.	.	.	16g#X\JJ)	.	.	.	.	16gg#X\JJ)	.
.	4a 4c#;/	4AA;/	-na	.	4c#;\	4a;/	4a;/	-na	]	.	.	.	.	.	4e;/]	4c#\)	.	4a 4c#;/	.	4a 4A;/	.	.	.	.	4c#;/)	.	4a/)yy	.	4a/)	.	4a;\	.	4cc#;/	4a\	.	4aa;\	.
=!|:	=!|:	=!|:	=!|:	=!|:	=!|:	=!|:	=!|:	=!|:	=!|:	=!|:	=!|:	=!|:	=!|:	=!|:	=!|:	=!|:	=!|:	=!|:	=!|:	=!|:	=!|:	=!|:	=!|:	=!|:	=!|:	=!|:	=!|:	=!|:	=!|:	=!|:	=!|:	=!|:	=!|:	=!|:	=!|:	=!|:	=!|:
*>B	*>B	*>B	*>B	*>B	*>B	*>B	*>B	*>B	*>B	*>B	*>B	*>B	*>B	*>B	*>B	*>B	*>B	*>B	*>B	*>B	*>B	*>B	*>B	*>B	*>B	*>B	*>B	*>B	*>B	*>B	*>B	*>B	*>B	*>B	*>B	*>B	*>B
!	!	!	!	!LO:DY:b:rj	!	!	!	!	!LO:DY:rj	!	!	!	!	!	!	!	!	!	!	!	!	!	!	!LO:DY:rj	!	!	!	!LO:DY:rj	!	!LO:DY:rj	!	!	!	!	!	!	!
4A 4AA\	8a 8e 8c#/L	8AA/	Któ-	p	8c#\	8e/	8a/	Któ-	p	.	4r	.	4r	.	4r	4ryy	.	4r	.	4r	.	8eL 8A'/	4ryy	p	8e'/L	.	8cc#'\Lyy	p	8cc#'\L	p	4r	.	4r	4ryy	.	4r	.
.	8a 8f# 8d/J	8AA/	-ry	.	8d\	8f#/	8a/	-ry	.	.	.	.	.	.	.	.	.	.	.	.	.	8f#J 8d'/	.	.	8f#'/J	.	8dd'\Jyy	.	8dd'\J	.	.	.	.	.	.	.	p
*	*	*	*	*	*	*	*	*	*	*	*	*	*	*	*v	*v	*	*	*	*	*	*v	*v	*	*	*	*	*	*	*	*	*	*	*	*	*	*
=9	=9	=9	=9	=9	=9	=9	=9	=9	=9	=9	=9	=9	=9	=9	=9	=9	=9	=9	=9	=9	=9	=9	=9	=9	=9	=9	=9	=9	=9	=9	=9	=9	=9	=9	=9
2.A 2.AA\	4a 4g 4e/	4AA/	sło-	.	4e\	4g/	4a/	sło-	.	2.ryy	4r	p	2.r	.	2.r	.	2.r	.	2.r	.	4g 4e\	.	4g'/	.	4ee'\yy	.	4ee'\	.	2.aTT\	.	8r	8r	.	2.aaT\	.
.	.	.	.	.	.	.	.	.	.	.	.	.	.	.	.	.	.	.	.	.	.	.	.	.	.	.	.	.	.	.	8aa\	8a\	p	.	.
*	*	*	*	*	*	*	*	*	*	*	*	*	*	*	*	*	*	*	*	*	*	*	*	*	*	*	*	*	*	*	*tremolo	*tremolo	*	*	*
!	!	!	!	!	!	!	!	!	!	!	!	!	!	!	!	!	!	!	!	!	!	!	!	!	!	!	!	!	!	!	!LO:TX:a:t=....	!	!	!	!
.	4a 4f# 4d/	4AA/	-wy	.	4d\	4f#/	4a/	-wy	.	.	4A 4AA'/	.	.	.	.	.	.	.	.	.	4f# 4d\	.	4f#'/	.	4dd'\yy	.	4dd'\	.	.	.	8aa\L	8a\L	.	.	.
.	.	.	.	.	.	.	.	.	.	.	.	.	.	.	.	.	.	.	.	.	.	.	.	.	.	.	.	.	.	.	8aa\	8a\	.	.	.
.	4a 4e 4c#/	4AA/	ka-	.	4c#\	4e/	4a/	ka-	.	.	4A 4AA'/	.	.	.	.	.	.	.	.	.	4e 4A\	.	4e'/	.	4cc#'\yy	.	4cc#'\	.	.	.	8aa\	8a\	.	.	.
.	.	.	.	.	.	.	.	.	.	.	.	.	.	.	.	.	.	.	.	.	.	.	.	.	.	.	.	.	.	.	8aa\J	8a\J	.	.	.
.	.	.	.	.	.	.	.	.	.	.	.	.	.	.	.	.	.	.	.	.	.	.	.	.	.	.	.	.	(16qqg#X/LL	.	.	.	.	(16qqgg#X/LL	.
.	.	.	.	.	.	.	.	.	.	.	.	.	.	.	.	.	.	.	.	.	.	.	.	.	.	.	.	.	16qqa/JJ)	.	.	.	.	16qqaa/JJ)	.
*	*	*	*	*	*	*	*	*	*	*	*	*	*	*	*	*	*	*	*	*	*	*	*	*	*	*	*	*	*	*	*Xtremolo	*Xtremolo	*	*	*
*	*	*	*	*	*	*	*	*	*	*	*	*	*	*	*	*	*	*	*	*	*	*	*	*	*	*	*	*	*	*	*v	*v	*	*	*
!!LO:PB:g=original
=10	=10	=10	=10	=10	=10	=10	=10	=10	=10	=10	=10	=10	=10	=10	=10	=10	=10	=10	=10	=10	=10	=10	=10	=10	=10	=10	=10	=10	=10	=10	=10	=10	=10	=10
*	*^	*	*	*	*	*	*	*	*	*	*	*	*	*	*	*	*	*	*	*	*	*	*	*	*	*	*	*	*	*	*	*	*	*
!	!	!	!	!	!	!	!	!	!	!	!	!	!	!	!	!	!	!	!	!	!LO:DY:rj	!	!	!	!	!	!	!	!	!	!	!	!	!	!
8AL 8D\L	2a/	8f#L 8d\	8D/L	-pła-	.	(8d\L	(8f#/L	4a/	-pła-	.	2.ryy	8dL 8D\	.	2.r	.	2.r	.	2.r	.	8aL 8A'/	p	(8f#L 8d\	.	(8f#/L	.	(8dd\Lyy	.	(8dd\L	.	(16dd\LL	.	8aaL 8a\	.	(16ddd\LL	.
.	.	.	.	.	.	.	.	.	.	.	.	.	.	.	.	.	.	.	.	.	.	.	.	.	.	.	.	.	.	16a\	.	.	.	16aa\	.
8AJ 8AA\J	.	8eJ 8c#\	8AA/J	.	.	8c#\J)	8e/J)	.	.	.	.	8AJ 8AA\	.	.	.	.	.	.	.	8aJ 8A'/	.	8eJ 8A\)	.	8e/J)	.	8cc#\J)yy	.	8cc#\J)	.	16ee\	.	8aaJ 8a\	.	16eee\	.
.	.	.	.	.	.	.	.	.	.	.	.	.	.	.	.	.	.	.	.	.	.	.	.	.	.	.	.	.	.	16a\JJ	.	.	.	16aa\JJ	.
4A 4D\	.	4f# 4d\	4D/	-na	.	4d\	4f#/	4a/	-na	.	.	4d 4D\	.	.	.	.	.	.	.	4a 4A'/	.	4f# 4d\	.	4f#/	.	4dd\yy	.	4dd\	.	4ff#\)	.	4aa 4a\	.	4fff#\)	.
4A 4AA\	4a/	8eL 8c#\	8AA/	wkró-	.	8c#\	8e/	8a/	wkrót-	.	.	4r	.	.	.	.	.	.	.	4r	.	8eL 8A'>/	.	8e'/L	.	8cc#'\Lyy	.	8cc#'\L	.	4r	.	4r	.	4r	.
.	.	8f#J 8d\	8AA/	-tce	.	8d\	8f#/	8a/	-ce	.	.	.	.	.	.	.	.	.	.	.	.	8f#J 8d'>/	.	8f#'/J	.	8dd'\Jyy	.	8dd'\J	.	.	.	.	.	.	.
=11	=11	=11	=11	=11	=11	=11	=11	=11	=11	=11	=11	=11	=11	=11	=11	=11	=11	=11	=11	=11	=11	=11	=11	=11	=11	=11	=11	=11	=11	=11	=11	=11	=11	=11	=11
*	*	*	*	*	*	*	*	*	*	*	*	*	*	*	*	*	*	*	*	*	*	*^	*	*	*	*	*	*	*	*	*	*	*	*	*
2.A 2.AA\	2a/	4g 4e\	2AA/	się	.	(4e\	4g/	2a/	się	.	2.ryy	4r	.	2.r	.	2.r	.	2.r	.	2.r	.	4g\	4e\	.	(4g/	.	(4ee\yy	.	(4ee\	.	2.aTT\	.	8r	.	2.aaT\	.
.	.	.	.	.	.	.	.	.	.	.	.	.	.	.	.	.	.	.	.	.	.	.	.	.	.	.	.	.	.	.	.	.	8aa 8a\	.	.	.
*	*	*	*	*	*	*	*	*	*	*	*	*	*	*	*	*	*	*	*	*	*	*	*	*	*	*	*	*	*	*	*	*	*tremolo	*	*	*
.	.	4f# 4d\	.	.	.	4d\)	4f#/	.	.	.	.	4A 4AA/	.	.	.	.	.	.	.	.	.	4f#\	4d\	.	4f#/)	.	4dd\)yy	.	4dd\)	.	.	.	8aa 8a\L	.	.	.
.	.	.	.	.	.	.	.	.	.	.	.	.	.	.	.	.	.	.	.	.	.	.	.	.	.	.	.	.	.	.	.	.	8aa 8a\	.	.	.
.	4cc#/	4g 4e\	4AA/	za-	.	4e\	4e/	4cc#\	za-	.	.	4A 4AA/	.	.	.	.	.	.	.	.	.	8e/L	4A\	.	4e/	.	4cc#'\yy	.	4cc#'\	.	.	.	8aa 8a\	.	.	.
.	.	.	.	.	.	.	.	.	.	.	.	.	.	.	.	.	.	.	.	.	.	8g/J	.	.	.	.	.	.	.	.	.	.	8aa 8a\J	.	.	.
*	*	*	*	*	*	*	*	*	*	*	*	*	*	*	*	*	*	*	*	*	*	*	*	*	*	*	*	*	*	*	*	*	*Xtremolo	*	*	*
.	.	.	.	.	.	.	.	.	.	.	.	.	.	.	.	.	.	.	.	.	.	.	.	.	.	.	.	.	.	.	(16qqg#X/LL	.	.	.	.	.
.	.	.	.	.	.	.	.	.	.	.	.	.	.	.	.	.	.	.	.	.	.	.	.	.	.	.	.	.	.	.	16qqa/JJ)	.	.	.	.	.
=12	=12	=12	=12	=12	=12	=12	=12	=12	=12	=12	=12	=12	=12	=12	=12	=12	=12	=12	=12	=12	=12	=12	=12	=12	=12	=12	=12	=12	=12	=12	=12	=12	=12	=12	=12	=12
*	*	*	*	*	*	*	*	*	*	*	*	*	*	*	*	*^	*	*^	*	*	*	*	*	*	*	*	*	*	*	*	*	*	*^	*	*	*
2B 2BB\	2dd 2f# 2d/	2ryy	4BB/	-mie-	.	4d\	4f#/	4dd\	-mie-	.	2.ryy	2B 2BB\	.	4r	.	4r	4ryy	.	4r	4ryy	.	4r	.	2f#/	2d\	.	2d/	.	2dd\yy	.	2dd\	.	2dd\	.	2ff#/	2dd\	.	2ddd\	.
!	!	!	!	!	!	!	!	!	!	!	!	!	!	!	!	!	!	!	!	!	!	!	!	!	!	!	!	!	!	!	!	!	!	!LO:DY:a	!	!	!LO:DY:a	!	!
.	.	.	4BB/	-ni	.	4d\	4f#/	4dd\	-ni	.	.	.	.	4r	.	4r	4ryy	.	4r	4ryy	.	4r	.	.	.	.	.	f	.	f	.	f	.	f	.	.	f	.	.
*	*	*	*	*	*	*	*	*Xtuplet	*	*	*	*	*	*	*	*Xtuplet	*	*	*Xtuplet	*	*	*	*	*	*	*	*	*	*Xtuplet	*	*Xtuplet	*	*Xtuplet	*	*	*Xtuplet	*	*	*
!	!	!	!	!	!	!	!	!	!	!	!	!	!	!	!LO:DY:rj	!	!	!	!	!	!LO:DY:rj	!	!LO:DY:rj	!	!	!	!	!	!	!	!	!	!	!	!	!	!	!LO:TUP:a	!
4A 4AA\	12a/L	4g 4e\	4AA/	w pra-	.	4e\	4g/	12a\L	w pra-	.	.	4A 4AA/	.	4A 4AA\	f	12A/L	4E\	.	12a/L	4d\	f	4a 4A/	f	4g/	4e\	.	4e/	.	12a/Lyy	.	12a/L	.	12a\L	.	4ee/	12a\L	.	12aa\L	.
.	12b/	.	.	.	.	.	.	12b\	.	.	.	.	.	.	.	12B/	.	.	12b/	.	.	.	.	.	.	.	.	.	12b/yy	.	12b/	.	12b\	.	.	12b\	.	12bb\	.
.	12cc#/J	.	.	.	.	.	.	12cc#\J	.	.	.	.	.	.	.	12c#/J	.	.	12cc#/J	.	.	.	.	.	.	.	.	.	12cc#/Jyy	.	12cc#/J	.	12cc#\J	.	.	12cc#\J	.	12ccc#\J	.
=13	=13	=13	=13	=13	=13	=13	=13	=13	=13	=13	=13	=13	=13	=13	=13	=13	=13	=13	=13	=13	=13	=13	=13	=13	=13	=13	=13	=13	=13	=13	=13	=13	=13	=13	=13	=13	=13	=13	=13
*	*	*^	*	*	*	*	*	*	*	*	*	*	*	*	*	*	*	*	*	*	*	*	*	*	*	*	*	*	*	*	*	*	*	*	*	*	*	*	*
4D\	2dd/	4f#\	2d\	(4D\	-wdzi-	.	2d\	(4f#/	2dd\	-wdzi-	.	2.ryy	(4D\	.	(4D\	.	2d/	(>4F#\	.	2dd/	4f#\	.	4a 4A/	.	4f#/	4d\	.	(4f#/	.	2dd\yy	.	2dd\	.	2dd\	.	(4ff#/	2dd\	.	2ddd\	.
!	!	!	!	!	!	!	!	!	!	!	!	!	!	!	!	!	!	!	!	!	!	!LO:HP:a	!	!	!	!	!	!	!	!	!	!	!	!	!	!	!	!LO:HP:a	!	!
4E\	.	4g\	.	4E\)	.	.	.	4g/)	.	.	.	.	4E\)	.	4E\)	.	.	4G\)	.	.	4g\	>	4r	.	2d/	2d\	.	4g/)	.	.	>	.	>	.	>	4gg/)	.	>	.	.
4F#\	4dd/	4a 4d\	4ryy	4F#\	-wą	.	4d\	4a/	4dd\	-wą	.	.	4F#\	.	4F#\	.	4d/	4A\	.	4dd/	4a\	]]	4r	.	.	.	.	4a/	.	4dd\yy	.	4dd\	.	4dd\	]]	4aa/	4dd\	.	4ddd\	.
*	*v	*v	*v	*	*	*	*	*	*	*	*	*	*	*	*	*	*	*	*	*	*	*	*	*	*	*	*	*	*	*	*	*	*	*	*	*	*	*	*	*
=14	=14	=14	=14	=14	=14	=14	=14	=14	=14	=14	=14	=14	=14	=14	=14	=14	=14	=14	=14	=14	=14	=14	=14	=14	=14	=14	=14	=14	=14	=14	=14	=14	=14	=14	=14	=14	=14	=14
4.G\	4.b 4.g 4.d/	4.G\	krew	.	4.d\	4.g/	4.b\	krew	.	2.ryy	(4G\	.	4.G\	.	4.d/	4.B\	.	(4.b/	(>4.g\	.	2.r	.	4.d/	4.d\	.	(4.g/	.	(4.b\yy	]	(4.b\	]	4.b\	.	(4.gg/	(>4.b\	]	[4.bb\	.
.	.	.	.	.	.	.	.	.	.	.	8G 8GG/)	.	.	.	.	.	.	.	.	p	.	.	.	.	.	.	.	.	.	.	.	.	.	.	.	.	.	p
!	!	!	!	!	!	!	!	!	!	!	!	!	!	!	!	!	!	!	!LO:S:s=2:note:problem=note-level slur	!	!	!	!	!	!	!	!	!	!	!	!	!	!	!	!LO:S:s=2:note:problem=note-level slur	!	!	!
8dL 8B\	8ddL 8b/	8B\	i	.	8d\	8b\	8dd\	i	.	.	8dL 8B\	.	8r	.	8r	8ryy	.	8ryy	8ddL) 8b\)	.	.	.	8r	8ryy	.	8b/L)	.	8dd\L)yy	.	8dd\L)	.	8r	.	4ryy	8bbL) 8dd\)	.	8bb\L]	.
8c# 8A\	8cc# 8a/	8A\	cia-	.	8c#\	8a/	8cc#\	cia-	.	.	8c# 8A\	.	4r	.	4r	4ryy	.	4ryy	8cc# 8a'\	.	.	.	4r	4ryy	.	8a'/	.	8cc#'\yy	.	8cc#'\	.	4r	.	.	8aa 8cc#'\	.	8aa'\	.
8BJ 8G\	8bJ 8g/	8G\	-ło	.	8B\	8g/	8b\	-ło	.	.	8BJ 8G\	.	.	.	.	.	.	.	8bJ 8g'\	.	.	.	.	.	.	8g'/J	.	8b'\Jyy	.	8b'\J	.	.	.	8ryy	8ggJ 8b'\	.	8gg'\J	.
*	*	*	*	*	*	*	*	*	*	*	*	*	*	*	*v	*v	*	*	*	*	*	*	*v	*v	*	*	*	*	*	*	*	*	*	*v	*v	*	*	*
*	*	*	*	*	*	*	*	*	*	*	*	*	*	*	*	*	*v	*v	*	*	*	*	*	*	*	*	*	*	*	*	*	*	*	*	*
!!LO:PB:g=original
=15	=15	=15	=15	=15	=15	=15	=15	=15	=15	=15	=15	=15	=15	=15	=15	=15	=15	=15	=15	=15	=15	=15	=15	=15	=15	=15	=15	=15	=15	=15	=15	=15	=15	=15
2A\	8aL 8f#/	8A\	Bo-	.	8A\	8f#/	8a/	Bo-	.	2.ryy	2A\	.	4r	.	4r	.	8aL 8f#/	.	4r	.	4r	.	8f#/L	.	8a/Lyy	.	8a/L	.	2.r	.	8ff#L 8a\	.	8ff#\L	.
.	8gJ 8e/	8A\	-ga	.	8A\	8e/	8g/	-ga	.	.	.	.	.	.	.	.	8gJ 8e/	.	.	.	.	.	8e/J	.	8g/Jyy	.	8g/J	.	.	.	8eeJ 8g\	.	8ee\J	.
.	4f# 4d/	4A\	Twe-	.	4A\	4d/	4f#/	Twe-	.	.	.	.	4r	.	4r	.	4f# 4d/	.	4r	.	4r	.	4d/	.	4f#/yy	.	4f#/	.	.	.	4dd 4f#\	.	4dd\	.
4A 4AA\	4e 4c#/	4AA/	-go	.	4A\	4c#/	4e/	-go	.	.	4A 4AA\	.	4AA/	.	4c# 4E\	.	4e 4c#/	.	4a 4A/	<	4e 4A/	.	4c#/	.	4e/yy	.	4e/	.	.	.	4cc# 4e\	.	4cc#\	.
=16	=16	=16	=16	=16	=16	=16	=16	=16	=16	=16	=16	=16	=16	=16	=16	=16	=16	=16	=16	=16	=16	=16	=16	=16	=16	=16	=16	=16	=16	=16	=16	=16	=16	=16
!LO:TX:a:t=1a	!	!	!	!	!	!	!	!	!	!	!	!	!	!	!	!	!	!	!	!	!	!	!	!	!	!	!	!	!	!	!	!	!	!
*>B1	*>B1	*>B1	*>B1	*>B1	*>B1	*>B1	*>B1	*>B1	*>B1	*>B1	*>B1	*>B1	*>B1	*>B1	*>B1	*>B1	*>B1	*>B1	*>B1	*>B1	*>B1	*>B1	*>B1	*>B1	*>B1	*>B1	*>B1	*>B1	*>B1	*>B1	*>B1	*>B1	*>B1	*>B1
*	*	*	*	*	*	*	*	*	*	*	*^	*	*	*	*	*	*	*	*	*	*	*	*	*	*	*	*	*	*	*	*	*	*	*
!	!	!	!	!	!	!	!	!	!	!	!	!	!	!	!	!	!	!	!	!	!LO:DY:rj	!	!	!	!LO:DY:a:rj	!	!LO:DY:rj	!	!LO:DY:rj	!	!	!LO:S:s=2:note:problem=note-level slur	!	!	!LO:DY:rj
4A 4AA\	4g 4e 4c#/	4AA/	Sy-	.	4c#\	4e/	4g/	Sy-	.	2ryy	2A/	4AA\	.	4AA/	.	4e 4G\	.	4e 4c#/	.	2a 2A/	[ f	4e 4A/	.	(4c#/	f	(4g/yy	f	(4g/	f	(4ee\	.	(4ee (>4g\	.	(4ee\	f
4A 4D\	4f# 4d/	4D/	-na	.	4d\	4d/	4f#/	-na	.	.	.	4D\	.	4D/	.	4d 4F#\	.	4d/	.	.	.	4d 4F#/	.	4d/)	.	4f#/)yy	.	4f#/)	.	4dd\)	.	4dd) 4f#\)	.	4dd\)	.
=17:|!	=17:|!	=17:|!	=17:|!	=17:|!	=17:|!	=17:|!	=17:|!	=17:|!	=17:|!	=17:|!	=17:|!	=17:|!	=17:|!	=17:|!	=17:|!	=17:|!	=17:|!	=17:|!	=17:|!	=17:|!	=17:|!	=17:|!	=17:|!	=17:|!	=17:|!	=17:|!	=17:|!	=17:|!	=17:|!	=17:|!	=17:|!	=17:|!	=17:|!	=17:|!	=17:|!
!LO:TX:a:t=2da	!	!	!	!	!	!	!	!	!	!	!	!	!	!	!	!	!	!	!	!	!	!	!	!	!	!	!	!	!	!	!	!	!	!	!
*>B2	*>B2	*>B2	*>B2	*>B2	*>B2	*>B2	*>B2	*>B2	*>B2	*>B2	*>B2	*>B2	*>B2	*>B2	*>B2	*>B2	*>B2	*>B2	*>B2	*>B2	*>B2	*>B2	*>B2	*>B2	*>B2	*>B2	*>B2	*>B2	*>B2	*>B2	*>B2	*>B2	*>B2	*>B2	*>B2
*^	*	*	*	*	*	*	*	*	*	*	*	*	*	*	*	*	*	*	*	*	*	*	*	*	*	*	*	*	*	*	*	*	*	*	*
*	*	*	*2\right	*	*	*	*	*	*	*	*	*	*	*	*2\right	*	*	*	*	*	*	*	*	*	*	*	*	*	*	*	*	*	*	*	*	*
!	!	!	!	!	!	!	!	!	!	!	!	!	!	!	!	!	!	!	!	!	!	!	!	!	!	!LO:DY:a:rj	!	!LO:DY:a:rj.	!	!LO:DY:a:rj	!	!	!LO:S:s=2:note:problem=note-level slur	!	!	!LO:DY:rj
2G\	[>2D\	2e 2c#/	2.D\	Sy-	.	(2G/	(2c#/	(>2e/	Sy-	.	2.ryy	[2.A/	[>2.D\	.	[2.D\	.	2e 2G\	.	2.e 2.c#/	.	[2.a [>2.A/	.	2e 2A\	.	(2c#/	f	(2g/yy	f	(2g/	f	(2ee\	.	(2ee (>2g\	.	(2ee\	f
4F#/	4D\]	4d/	.	.	.	4F#/)	4d/)	4d/)	.	.	.	.	.	.	.	.	4d 4F#\	.	.	.	.	.	4d 4F#\	.	4d/)	.	4f#/)yy	.	4f#/)	.	4dd\)	.	4dd) 4f#\)	.	4dd\)	.
=18	=18	=18	=18	=18	=18	=18	=18	=18	=18	=18	=18	=18	=18	=18	=18	=18	=18	=18	=18	=18	=18	=18	=18	=18	=18	=18	=18	=18	=18	=18	=18	=18	=18	=18	=18	=18
2F#/	2D\	2d/	2D\	-na.	.	2F#/	2d/	2d/	-na.	.	2ryy	2A/]	2D\]	.	2D\]	.	2d 2F#\	.	2d/	.	2a] 2A/]	.	2d 2F#/	.	2d/	.	2f#/yy	.	2f#/	.	2dd\	.	2dd 2f#\	.	2dd\	.
*v	*v	*	*	*	*	*	*	*	*	*	*	*v	*v	*	*	*	*	*	*	*	*	*	*	*	*	*	*	*	*	*	*	*	*	*	*	*
==	==	==	==	==	==	==	==	==	==	==	==	==	==	==	==	==	==	==	==	==	==	==	==	==	==	==	==	==	==	==	==	==	==	==
*-	*-	*-	*-	*-	*-	*-	*-	*-	*-	*-	*-	*-	*-	*-	*-	*-	*-	*-	*-	*-	*-	*-	*-	*-	*-	*-	*-	*-	*-	*-	*-	*-	*-	*-
!!!system-decoration: [{(p1,p2,p3)}{(p4,p5,p6)}{(p7,p8)}<p9>{(p10,p11)}<p12><p13>{g1}{(p18)}]
!!!RDF**kern: > = above
!!!RDF**kern: < = below
!!!ENC: Marta Lawrence
!!!END: 2021-04-25
!!!ENC: Andrzej Gręziak
!!!END: 2021-04-08
